Adwaita++/actions/16/format-text-underline.svg

<svg xmlns="http://www.w3.org/2000/svg" width="16" height="16">
    <g color="#000" font-weight="400" font-family="sans-serif" white-space="normal" fill="#474747">
        <path d="M4 2v2h6c.428 0 1 .614 1 1v1H6c-.92 0-1.736.38-2.25.965a3.037 3.037 0 0 0-.737 2.045c.006.72.246 1.449.758 2.027.513.579 1.32.963 2.229.963h7V5a3 3 0 0 0-3-3zm2 6h5v2H6c-.398 0-.579-.116-.73-.287a1.138 1.138 0 0 1-.257-.723c-.002-.28.093-.54.239-.705C5.397 8.12 5.577 8 6 8z" style="line-height:normal;font-variant-ligatures:normal;font-variant-position:normal;font-variant-caps:normal;font-variant-numeric:normal;font-variant-alternates:normal;font-feature-settings:normal;text-indent:0;text-align:start;text-decoration-line:none;text-decoration-style:solid;text-decoration-color:#000;text-transform:none;text-orientation:mixed;shape-padding:0;isolation:auto;mix-blend-mode:normal;marker:none" overflow="visible"/>
        <path d="M2 13v2h12v-2z" style="line-height:normal;font-variant-ligatures:normal;font-variant-position:normal;font-variant-caps:normal;font-variant-numeric:normal;font-variant-alternates:normal;font-feature-settings:normal;text-indent:0;text-align:start;text-decoration-line:none;text-decoration-style:solid;text-decoration-color:#000;text-transform:none;text-orientation:mixed;shape-padding:0;isolation:auto;mix-blend-mode:normal" overflow="visible"/>
    </g>
</svg>

<svg xmlns="http://www.w3.org/2000/svg" width="16" height="16" version="1.1">
 <path style="fill:#444444" d="M 13,5 C 13,3.37 11.68,2 10,2 H 4 V 4 H 10 C 10.43,4 11,4.61 11,5 V 6 H 6 C 5.08,6 4.26,6.38 3.75,6.97 3.24,7.55 3,8.28 3,9 3,9.72 3.27,10.45 3.78,11.03 4.29,11.61 5.09,12 6,12 H 13 M 6,8 H 11 V 10 H 6 C 5.6,10 5.43,9.89 5.28,9.72 5.13,9.55 5,9.28 5,9 5,8.72 5.1,8.45 5.25,8.28 5.4,8.12 5.58,8 6,8 Z"/>
 <path style="fill:#444444" d="M 2,13 V 15 H 14 V 13 Z"/>
</svg>
